X: 387
T:Willie Fraser's Strathspey
N: page 144
N: hexatonic
R: Strathspey
M: C
L: 1/8
C:D. A. Beaton
K: D
g|"D"f2 d>B A>B d<f |"Em"g>e f>d "A"e/2e/2e e>g |"D"f2 d>B A>B d>e |"D"f<a "A"e>f "D"d/2d/2d d g|
"D"f2 d>B A>B d<f | "Em"g>e f>d "A"e/2e/2e e>g |"D"f<d e>f d>B A>F |"G"G<B "A"A>F "D"D/2D/2D D B|:
"D"A<D F>E D>F A>f |"Em"g>e f>d "A"e/2e/2e e>f |"D"A<D F>E D>F A>F |"G"G<B "A"A>F "D"D/2D/2D D B:|
